src/assets/images/prototype/resultats/7-details-calcul.svg

<svg width="95" height="103" viewBox="0 0 95 103" fill="none" xmlns="http://www.w3.org/2000/svg">
<g clip-path="url(#clip0_1031_1800)">
<path d="M28 16.8602L29.5 15.5L31 17.5L29.13 18.7208L28 16.8602Z" stroke="black" stroke-width="1.8" stroke-linejoin="round"/>
<path d="M48.3394 14.1398C47.7948 15.2261 48.0445 15.9892 48.2374 16.235L41.1447 20.0768C40.1736 19.1604 37.9663 17.2363 36.9064 16.8708C35.5816 16.4139 34.9841 17.0467 33.0204 17.8012C31.4494 18.4048 29.775 15.8707 29.1342 14.5282C32.7268 12.2525 40.4755 7.59393 42.7284 7.16484C45.5447 6.62848 51.6329 8.46152 51.9241 9.91098C52.2153 11.3605 49.0203 12.782 48.3394 14.1398Z" stroke="black" stroke-width="1.8" stroke-linejoin="round"/>
<path d="M64.6174 27.5767C61.1202 25.2675 54.1382 22.3938 51.0843 21.2456L45.0752 24.5004C44.3649 25.0912 42.6882 26.4232 42.6922 27.1511C42.7024 29.0001 44.7154 28.2189 45.4499 29.4282C46.1844 30.6376 44.7263 30.5001 45.3478 31.5234C45.9693 32.5467 48.1033 32.5036 47.9642 33.568C47.8252 34.6323 47.6644 35.3376 48.3142 36.4074C48.9639 37.4772 50.6176 36.6433 51.6911 38.4108C52.7647 40.1784 46.7202 47.4704 46.3212 48.861C45.9221 50.2517 49.6651 60.402 52.1172 65.1936C54.5692 69.9852 60.4845 77.7845 63.9664 79.422C67.4484 81.0595 87.5088 70.0083 90.7139 66.2323C93.919 62.4563 89.3881 56.9362 85.651 50.2444C81.9139 43.5526 72.1813 35.7193 71.7858 35.0681C71.3903 34.4169 72.1849 33.6774 72.0921 32.9858C71.9994 32.2943 68.989 30.4632 64.6174 27.5767Z" stroke="black" stroke-width="1.8" stroke-linejoin="round"/>
<path d="M40.5963 20.6829L43.5909 25.6133L51.8164 21.1579L48.8218 16.2275C48.1622 16.2551 46.3791 17.253 45 18C43.6208 18.747 41.5292 19.8478 40.5963 20.6829Z" stroke="black" stroke-width="1.8" stroke-linejoin="round"/>
<path d="M32.9553 25.1307C32.4083 22.398 32.2015 19.5428 31.7736 17.7965L34.4841 17.1938C34.2869 18.5575 34.4408 20.679 34.4857 22.2618C34.5177 23.3875 33.7819 30.8027 33.2459 30.3513C32.7099 29.8998 33.3678 27.1917 32.9553 25.1307Z" stroke="black" stroke-width="1.8" stroke-linejoin="round"/>
<path d="M22.069 71.5552L36.8022 53.1327L22.4506 72.2364L11.1478 87.9223C10.8266 88.3681 10.1927 88.4435 9.77594 88.0855C9.39022 87.7542 9.3388 87.1758 9.66003 86.7817L22.069 71.5552Z" stroke="black" stroke-width="1.8" stroke-linejoin="round"/>
<path d="M16.4028 59.2903C10.5245 66.7088 14.2227 74.9107 16.9496 78.2932C17.0603 78.4305 17.188 78.5462 17.3346 78.6444C21.5772 81.4858 29.498 83.9574 36.4262 75.4877C43.4749 66.8708 39.3563 54.842 37.4139 53.1924C35.4714 51.5429 23.902 49.8262 16.4028 59.2903Z" stroke="black" stroke-width="1.8" stroke-linejoin="round"/>
</g>
<defs>
<clipPath id="clip0_1031_1800">
<rect width="95" height="103" fill="white"/>
</clipPath>
</defs>
</svg>

<svg width="95" height="103" fill="none" xmlns="http://www.w3.org/2000/svg"><g clip-path="url(#clip0_1031_1800)" stroke="#000" stroke-width="1.8" stroke-linejoin="round"><path d="M28 16.86l1.5-1.36 1.5 2-1.87 1.22L28 16.86z"/><path d="M48.34 14.14c-.545 1.086-.296 1.85-.103 2.095l-7.092 3.842c-.971-.917-3.179-2.84-4.239-3.206-1.324-.457-1.922.176-3.886.93-1.57.604-3.245-1.93-3.886-3.273 3.593-2.276 11.341-6.934 13.594-7.363 2.817-.537 8.905 1.297 9.196 2.746.291 1.45-2.904 2.871-3.585 4.229zm16.277 13.437c-3.497-2.31-10.479-5.183-13.533-6.331L45.075 24.5c-.71.591-2.387 1.923-2.383 2.651.01 1.85 2.023 1.068 2.758 2.277.734 1.21-.724 1.072-.102 2.095.621 1.024 2.755.98 2.616 2.045-.139 1.064-.3 1.77.35 2.84.65 1.07 2.304.235 3.377 2.003 1.074 1.767-4.97 9.06-5.37 10.45-.399 1.39 3.344 11.541 5.796 16.333 2.452 4.791 8.367 12.59 11.85 14.228 3.481 1.638 23.542-9.414 26.747-13.19 3.205-3.776-1.326-9.296-5.063-15.988-3.737-6.691-13.47-14.525-13.865-15.176-.396-.651.399-1.39.306-2.082-.093-.692-3.103-2.523-7.475-5.41z"/><path d="M40.596 20.683l2.995 4.93 8.225-4.455-2.994-4.93c-.66.027-2.443 1.025-3.822 1.772-1.38.747-3.47 1.848-4.404 2.683zm-7.641 4.447c-.547-2.732-.753-5.587-1.181-7.333l2.71-.603c-.197 1.364-.043 3.485.002 5.068.032 1.125-.704 8.54-1.24 8.09-.536-.452.122-3.16-.29-5.221zM22.069 71.555l14.733-18.422-14.351 19.103-11.303 15.686a.938.938 0 11-1.488-1.14l12.409-15.227z"/><path d="M16.403 59.29c-5.878 7.419-2.18 15.62.547 19.003.11.137.238.253.385.351 4.242 2.842 12.163 5.313 19.091-3.156 7.049-8.617 2.93-20.646.988-22.296-1.943-1.65-13.512-3.366-21.011 6.098z"/></g><defs><clipPath id="clip0_1031_1800"><path fill="#fff" d="M0 0h95v103H0z"/></clipPath></defs></svg>
